img/icons/icons-reference-information/icon-tax-calendar.svg

<svg width="120" height="120" viewBox="0 0 120 120" fill="none" xmlns="http://www.w3.org/2000/svg">
<path d="M12.1574 27.5118C11.7582 27.5118 11.3753 27.6701 11.0918 27.9523C10.8083 28.2345 10.6474 28.6177 10.644 29.0184V94.7927C10.6474 95.1934 10.8083 95.5766 11.0918 95.8588C11.3753 96.141 11.7582 96.2992 12.1574 96.2992H97.5793V85.4828C97.5793 85.2608 97.6669 85.0479 97.8232 84.8909C97.9795 84.734 98.1917 84.6458 98.4128 84.6458H108.776V29.0184C108.776 28.6188 108.618 28.2357 108.337 27.9531C108.055 27.6706 107.674 27.5118 107.276 27.5118H101.94V30.8855C101.94 31.4559 101.714 32.0028 101.313 32.4061C100.911 32.8094 100.366 33.0359 99.7982 33.0359H95.6936C95.4123 33.0359 95.134 32.9804 94.8741 32.8723C94.6142 32.7642 94.3781 32.6058 94.1792 32.4061C93.9803 32.2064 93.8225 31.9694 93.7148 31.7085C93.6072 31.4476 93.5517 31.1679 93.5517 30.8855V27.5118H82.8931V30.8855C82.8898 31.457 82.6612 32.004 82.2575 32.4069C81.8537 32.8098 81.3077 33.0359 80.7385 33.0359H76.647C76.0777 33.0359 75.5317 32.8098 75.128 32.4069C74.7242 32.004 74.4957 31.457 74.4923 30.8855V27.5118H63.8338V30.8855C63.8304 31.457 63.6018 32.004 63.1981 32.4069C62.7944 32.8098 62.2483 33.0359 61.6791 33.0359H57.5745C57.0086 33.0325 56.4672 32.8045 56.0683 32.4016C55.6694 31.9987 55.4454 31.4536 55.4454 30.8855V27.5118H44.7741V30.8855C44.7741 31.4559 44.5485 32.0028 44.1468 32.4061C43.7451 32.8094 43.2003 33.0359 42.6322 33.0359H38.5279C38.2466 33.0359 37.968 32.9804 37.7081 32.8723C37.4482 32.7642 37.2122 32.6058 37.0133 32.4061C36.8144 32.2064 36.6565 31.9694 36.5489 31.7085C36.4412 31.4476 36.3857 31.1679 36.3857 30.8855V27.5118H25.7147V30.8855C25.7147 31.4559 25.4888 32.0028 25.0871 32.4061C24.6854 32.8094 24.1406 33.0359 23.5725 33.0359H19.4811C18.9118 33.0359 18.3658 32.8098 17.962 32.4069C17.5583 32.004 17.3297 31.457 17.3264 30.8855V27.5118H12.1574ZM98.4128 97.9604H12.1574C11.316 97.9604 10.509 97.6257 9.91284 97.0296C9.31668 96.4335 8.97996 95.6245 8.97656 94.7798V29.0184C8.97996 28.1737 9.31668 27.3648 9.91284 26.7687C10.509 26.1726 11.316 25.8379 12.1574 25.8379H18.237C18.4581 25.8379 18.6702 25.9261 18.8266 26.083C18.9829 26.24 19.0705 26.4528 19.0705 26.6748V30.8855C19.0705 30.9492 19.0835 31.0122 19.1081 31.0709C19.1328 31.1295 19.1688 31.1827 19.2143 31.2271C19.2597 31.2715 19.3133 31.3063 19.3724 31.3295C19.4315 31.3527 19.4947 31.3637 19.5581 31.362H23.6495C23.7754 31.362 23.8962 31.3118 23.9852 31.2225C24.0742 31.1331 24.1242 31.0119 24.1242 30.8855V26.6748C24.1242 26.4528 24.2118 26.24 24.3682 26.083C24.5245 25.9261 24.7367 25.8379 24.9578 25.8379H37.2967C37.5178 25.8379 37.7296 25.9261 37.886 26.083C38.0423 26.24 38.1302 26.4528 38.1302 26.6748V30.8855C38.1335 31.0109 38.1844 31.1302 38.2727 31.2189C38.361 31.3075 38.4801 31.3587 38.6049 31.362H42.7092C42.8341 31.3587 42.9529 31.3075 43.0412 31.2189C43.1295 31.1302 43.1804 31.0109 43.1836 30.8855V26.6748C43.1836 26.4528 43.2715 26.24 43.4279 26.083C43.5842 25.9261 43.7964 25.8379 44.0175 25.8379H56.3561C56.5772 25.8379 56.7893 25.9261 56.9457 26.083C57.102 26.24 57.1899 26.4528 57.1899 26.6748V30.8855C57.1899 31.0097 57.238 31.129 57.3243 31.218C57.4105 31.307 57.5279 31.3586 57.6515 31.362H61.7558C61.8192 31.3637 61.8824 31.3527 61.9415 31.3295C62.0005 31.3063 62.0545 31.2715 62.0999 31.2271C62.1454 31.1827 62.1814 31.1295 62.2061 31.0709C62.2307 31.0122 62.2434 30.9492 62.2433 30.8855V26.6748C62.2433 26.4528 62.3312 26.24 62.4876 26.083C62.6439 25.9261 62.8558 25.8379 63.0769 25.8379H75.4029C75.624 25.8379 75.8359 25.9261 75.9922 26.083C76.1486 26.24 76.2365 26.4528 76.2365 26.6748V30.8855C76.2398 31.0131 76.2926 31.1343 76.3837 31.2233C76.4747 31.3123 76.597 31.362 76.724 31.362H80.8155C80.9426 31.362 81.0645 31.3123 81.1556 31.2233C81.2466 31.1343 81.2994 31.0131 81.3027 30.8855V26.6748C81.3027 26.4528 81.3906 26.24 81.547 26.083C81.7033 25.9261 81.9155 25.8379 82.1366 25.8379H94.4623C94.6834 25.8379 94.8956 25.9261 95.0519 26.083C95.2083 26.24 95.2962 26.4528 95.2962 26.6748V30.8855C95.2944 30.9486 95.3055 31.0113 95.3288 31.0699C95.352 31.1285 95.3867 31.1818 95.4311 31.2264C95.4756 31.271 95.5287 31.306 95.5871 31.3294C95.6455 31.3527 95.7078 31.3637 95.7706 31.362H99.8749C99.9997 31.3587 100.119 31.3075 100.207 31.2189C100.295 31.1302 100.346 31.0109 100.35 30.8855V26.6748C100.35 26.4528 100.437 26.24 100.594 26.083C100.75 25.9261 100.962 25.8379 101.183 25.8379H107.276C108.115 25.8413 108.919 26.1774 109.512 26.7731C110.105 27.3689 110.44 28.1759 110.444 29.0184V85.4699C110.444 85.6919 110.356 85.9048 110.2 86.0617C110.043 86.2187 109.831 86.3069 109.61 86.3069H99.2464V97.1233C99.2464 97.3453 99.1588 97.5582 99.0025 97.7152C98.8461 97.8721 98.6339 97.9604 98.4128 97.9604V97.9604Z" fill="#282828"/>
<path d="M109.633 42.7697H9.83357C9.61246 42.7697 9.40059 42.6815 9.24425 42.5245C9.0879 42.3676 9 42.1547 9 41.9327C9 41.7107 9.0879 41.4978 9.24425 41.3408C9.40059 41.1839 9.61246 41.0957 9.83357 41.0957H109.633C109.855 41.0957 110.067 41.1839 110.223 41.3408C110.379 41.4978 110.467 41.7107 110.467 41.9327C110.467 42.1547 110.379 42.3676 110.223 42.5245C110.067 42.6815 109.855 42.7697 109.633 42.7697V42.7697Z" fill="#282828"/>
<path d="M19.5297 21.9876C19.4663 21.9859 19.4031 21.9969 19.344 22.0201C19.2849 22.0433 19.2313 22.0781 19.1859 22.1225C19.1404 22.1669 19.1044 22.22 19.0797 22.2787C19.0551 22.3373 19.0424 22.4004 19.0425 22.4641V30.8854C19.0424 30.9491 19.0551 31.0121 19.0797 31.0707C19.1044 31.1294 19.1404 31.1826 19.1859 31.227C19.2313 31.2714 19.2849 31.3062 19.344 31.3294C19.4031 31.3525 19.4663 31.3636 19.5297 31.3618H23.6211C23.747 31.3618 23.8678 31.3117 23.9568 31.2223C24.0458 31.133 24.0959 31.0118 24.0959 30.8854V22.4641C24.0976 22.401 24.0865 22.3382 24.0633 22.2796C24.0401 22.221 24.005 22.1678 23.9606 22.1232C23.9162 22.0786 23.8633 22.0436 23.805 22.0202C23.7466 21.9969 23.6839 21.9859 23.6211 21.9876H19.5297ZM23.6211 33.0358H19.5297C18.9604 33.0358 18.4144 32.8096 18.0107 32.4067C17.6069 32.0038 17.3784 31.4569 17.375 30.8854V22.4641C17.375 21.8903 17.6019 21.3401 18.006 20.9344C18.4101 20.5287 18.9582 20.3008 19.5297 20.3008H23.6211C24.1904 20.3042 24.7354 20.5336 25.1367 20.9389C25.5381 21.3442 25.7633 21.8925 25.7633 22.4641V30.8854C25.7633 31.4557 25.5375 32.0027 25.1358 32.4059C24.7341 32.8092 24.1892 33.0358 23.6211 33.0358V33.0358Z" fill="#282828"/>
<path d="M38.5797 21.9876C38.4538 21.9876 38.333 22.0378 38.244 22.1271C38.155 22.2165 38.105 22.3377 38.105 22.4641V30.8854C38.1082 31.0107 38.1591 31.1301 38.2474 31.2187C38.3357 31.3074 38.4548 31.3586 38.5797 31.3618H42.684C42.8088 31.3586 42.9276 31.3074 43.0159 31.2187C43.1042 31.1301 43.1551 31.0107 43.1584 30.8854V22.4641C43.1584 22.3377 43.1083 22.2165 43.0193 22.1271C42.9303 22.0378 42.8098 21.9876 42.684 21.9876H38.5797ZM42.684 33.0358H38.5797C38.0116 33.0358 37.4667 32.8092 37.065 32.4059C36.6633 32.0027 36.4375 31.4557 36.4375 30.8854V22.4641C36.4375 21.8925 36.6628 21.3442 37.0641 20.9389C37.4654 20.5336 38.0104 20.3042 38.5797 20.3008H42.684C43.2532 20.3042 43.7979 20.5336 44.1992 20.9389C44.6006 21.3442 44.8258 21.8925 44.8258 22.4641V30.8854C44.8258 31.4557 44.6003 32.0027 44.1986 32.4059C43.7969 32.8092 43.252 33.0358 42.684 33.0358V33.0358Z" fill="#282828"/>
<path d="M57.6212 21.9876C57.5595 21.9876 57.4983 22 57.4415 22.0241C57.3846 22.0482 57.3333 22.0835 57.2902 22.1279C57.2472 22.1723 57.2134 22.2249 57.191 22.2827C57.1685 22.3404 57.1579 22.4021 57.1596 22.4641V30.8854C57.1596 31.0096 57.2077 31.1289 57.294 31.2179C57.3802 31.3068 57.4976 31.3585 57.6212 31.3618H61.7255C61.7889 31.3636 61.8521 31.3525 61.9112 31.3294C61.9702 31.3062 62.0242 31.2714 62.0696 31.227C62.1151 31.1826 62.1511 31.1294 62.1758 31.0707C62.2004 31.0121 62.2131 30.9491 62.213 30.8854V22.4641C62.2131 22.4004 62.2004 22.3373 62.1758 22.2787C62.1511 22.22 62.1151 22.1669 62.0696 22.1225C62.0242 22.0781 61.9702 22.0433 61.9112 22.0201C61.8521 21.9969 61.7889 21.9859 61.7255 21.9876H57.6212ZM61.7255 33.0358H57.6212C57.0553 33.0324 56.5139 32.8044 56.115 32.4015C55.7161 31.9986 55.4922 31.4535 55.4922 30.8854V22.4641C55.4921 21.8948 55.7155 21.3483 56.1141 20.9434C56.5126 20.5384 57.0542 20.3076 57.6212 20.3008H61.7255C62.297 20.3008 62.8451 20.5287 63.2492 20.9344C63.6533 21.3401 63.8805 21.8903 63.8805 22.4641V30.8854C63.8771 31.4569 63.6486 32.0038 63.2448 32.4067C62.8411 32.8096 62.2948 33.0358 61.7255 33.0358Z" fill="#282828"/>
<path d="M76.6941 21.9876C76.6307 21.9859 76.5674 21.9969 76.5084 22.0201C76.4493 22.0433 76.3957 22.0781 76.3502 22.1225C76.3048 22.1669 76.2684 22.22 76.2438 22.2787C76.2191 22.3373 76.2065 22.4004 76.2065 22.4641V30.8854C76.2099 31.0129 76.2626 31.1341 76.3537 31.2231C76.4447 31.3121 76.567 31.3619 76.6941 31.3618H80.7855C80.9126 31.3619 81.0345 31.3121 81.1256 31.2231C81.2166 31.1341 81.2694 31.0129 81.2728 30.8854V22.4641C81.2728 22.4004 81.2601 22.3373 81.2355 22.2787C81.2108 22.22 81.1748 22.1669 81.1293 22.1225C81.0839 22.0781 81.0303 22.0433 80.9712 22.0201C80.9121 21.9969 80.8489 21.9859 80.7855 21.9876H76.6941ZM80.7855 33.0358H76.6941C76.1248 33.0358 75.5785 32.8096 75.1747 32.4067C74.771 32.0038 74.5425 31.4569 74.5391 30.8854V22.4641C74.5391 21.8903 74.7662 21.3401 75.1703 20.9344C75.5744 20.5287 76.1226 20.3008 76.6941 20.3008H80.7855C81.356 20.3042 81.9021 20.5331 82.3055 20.9381C82.7089 21.3431 82.9368 21.8914 82.9402 22.4641V30.8854C82.9368 31.4569 82.7083 32.0038 82.3045 32.4067C81.9008 32.8096 81.3548 33.0358 80.7855 33.0358V33.0358Z" fill="#282828"/>
<path d="M95.7434 21.9876C95.6806 21.9859 95.6183 21.9969 95.5599 22.0202C95.5015 22.0436 95.4484 22.0786 95.404 22.1232C95.3596 22.1678 95.3248 22.221 95.3016 22.2796C95.2784 22.3382 95.2672 22.401 95.269 22.4641V30.8854C95.2672 30.9485 95.2784 31.0112 95.3016 31.0698C95.3248 31.1284 95.3596 31.1817 95.404 31.2263C95.4484 31.2709 95.5015 31.3059 95.5599 31.3292C95.6183 31.3525 95.6806 31.3636 95.7434 31.3618H99.848C99.9729 31.3586 100.092 31.3074 100.18 31.2187C100.268 31.1301 100.319 31.0107 100.322 30.8854V22.4641C100.322 22.3377 100.272 22.2165 100.183 22.1271C100.094 22.0378 99.9739 21.9876 99.848 21.9876H95.7434ZM99.848 33.0358H95.7434C95.1753 33.0358 94.6305 32.8092 94.2288 32.4059C93.8271 32.0027 93.6016 31.4557 93.6016 30.8854V22.4641C93.6016 21.8925 93.8268 21.3442 94.2281 20.9389C94.6295 20.5336 95.1742 20.3042 95.7434 20.3008H99.848C100.417 20.3042 100.962 20.5336 101.363 20.9389C101.765 21.3442 101.99 21.8925 101.99 22.4641V30.8854C101.99 31.4557 101.764 32.0027 101.362 32.4059C100.961 32.8092 100.416 33.0358 99.848 33.0358V33.0358Z" fill="#282828"/>
<path d="M98.5873 97.7294C98.3726 97.7284 98.1663 97.6455 98.0102 97.4975C97.9326 97.4198 97.8712 97.3275 97.8292 97.2258C97.7872 97.1242 97.7656 97.0153 97.7656 96.9053C97.7656 96.7952 97.7872 96.6862 97.8292 96.5846C97.8712 96.483 97.9326 96.3906 98.0102 96.3129L108.989 84.8913C109.065 84.8118 109.156 84.7481 109.256 84.7037C109.357 84.6594 109.464 84.6354 109.574 84.633C109.684 84.6306 109.793 84.6499 109.895 84.6898C109.997 84.7297 110.09 84.7894 110.169 84.8655C110.248 84.9416 110.312 85.0326 110.356 85.1333C110.4 85.2341 110.424 85.3425 110.427 85.4525C110.429 85.5625 110.41 85.672 110.37 85.7745C110.33 85.877 110.271 85.9707 110.195 86.0502L99.2032 97.4718C99.1262 97.5546 99.0328 97.6204 98.9289 97.6647C98.8251 97.7091 98.713 97.7311 98.6001 97.7294H98.5873Z" fill="#282828"/>
<path d="M36.583 58.0294H19.037C18.9275 58.0294 18.8191 58.0077 18.7179 57.9657C18.6168 57.9236 18.5248 57.862 18.4474 57.7843C18.37 57.7066 18.3086 57.6143 18.2667 57.5128C18.2248 57.4112 18.2031 57.3023 18.2031 57.1924C18.2031 57.0825 18.2248 56.9737 18.2667 56.8721C18.3086 56.7706 18.37 56.6783 18.4474 56.6006C18.5248 56.5229 18.6168 56.4612 18.7179 56.4191C18.8191 56.3771 18.9275 56.3555 19.037 56.3555H36.583C36.8041 56.3555 37.016 56.4436 37.1723 56.6006C37.3287 56.7576 37.4166 56.9704 37.4166 57.1924C37.4166 57.4144 37.3287 57.6273 37.1723 57.7843C37.016 57.9413 36.8041 58.0294 36.583 58.0294V58.0294Z" fill="#282828"/>
<path d="M68.4577 58.0294H50.9117C50.6906 58.0294 50.4787 57.9413 50.3224 57.7843C50.166 57.6273 50.0781 57.4144 50.0781 57.1924C50.0781 56.9704 50.166 56.7576 50.3224 56.6006C50.4787 56.4436 50.6906 56.3555 50.9117 56.3555H68.4577C68.6788 56.3555 68.891 56.4436 69.0473 56.6006C69.2037 56.7576 69.2916 56.9704 69.2916 57.1924C69.2916 57.4144 69.2037 57.6273 69.0473 57.7843C68.891 57.9413 68.6788 58.0294 68.4577 58.0294V58.0294Z" fill="#282828"/>
<path d="M100.32 58.0294H82.787C82.6775 58.0294 82.5691 58.0077 82.4679 57.9657C82.3668 57.9236 82.2748 57.862 82.1974 57.7843C82.12 57.7066 82.0586 57.6143 82.0167 57.5128C81.9748 57.4112 81.9531 57.3023 81.9531 57.1924C81.9531 57.0825 81.9748 56.9737 82.0167 56.8721C82.0586 56.7706 82.12 56.6783 82.1974 56.6006C82.2748 56.5229 82.3668 56.4612 82.4679 56.4191C82.5691 56.3771 82.6775 56.3555 82.787 56.3555H100.32C100.43 56.3555 100.538 56.3771 100.639 56.4191C100.74 56.4612 100.832 56.5229 100.91 56.6006C100.987 56.6783 101.049 56.7706 101.09 56.8721C101.132 56.9737 101.154 57.0825 101.154 57.1924C101.154 57.3023 101.132 57.4112 101.09 57.5128C101.049 57.6143 100.987 57.7066 100.91 57.7843C100.832 57.862 100.74 57.9236 100.639 57.9657C100.538 58.0077 100.43 58.0294 100.32 58.0294V58.0294Z" fill="#282828"/>
<path d="M36.583 70.3263H19.037C18.8159 70.3263 18.6037 70.2381 18.4474 70.0812C18.291 69.9242 18.2031 69.7113 18.2031 69.4893C18.2031 69.2673 18.291 69.0544 18.4474 68.8975C18.6037 68.7405 18.8159 68.6523 19.037 68.6523H36.583C36.8041 68.6523 37.016 68.7405 37.1723 68.8975C37.3287 69.0544 37.4166 69.2673 37.4166 69.4893C37.4166 69.7113 37.3287 69.9242 37.1723 70.0812C37.016 70.2381 36.8041 70.3263 36.583 70.3263Z" fill="#282828"/>
<path d="M68.4577 70.3263H50.9117C50.6906 70.3263 50.4787 70.2381 50.3224 70.0812C50.166 69.9242 50.0781 69.7113 50.0781 69.4893C50.0781 69.2673 50.166 69.0544 50.3224 68.8975C50.4787 68.7405 50.6906 68.6523 50.9117 68.6523H68.4577C68.6788 68.6523 68.891 68.7405 69.0473 68.8975C69.2037 69.0544 69.2916 69.2673 69.2916 69.4893C69.2916 69.7113 69.2037 69.9242 69.0473 70.0812C68.891 70.2381 68.6788 70.3263 68.4577 70.3263Z" fill="#282828"/>
<path d="M100.32 70.3263H82.787C82.5659 70.3263 82.3537 70.2381 82.1974 70.0812C82.041 69.9242 81.9531 69.7113 81.9531 69.4893C81.9531 69.2673 82.041 69.0544 82.1974 68.8975C82.3537 68.7405 82.5659 68.6523 82.787 68.6523H100.32C100.541 68.6523 100.753 68.7405 100.91 68.8975C101.066 69.0544 101.154 69.2673 101.154 69.4893C101.154 69.7113 101.066 69.9242 100.91 70.0812C100.753 70.2381 100.541 70.3263 100.32 70.3263V70.3263Z" fill="#282828"/>
<path d="M36.583 82.6876H19.037C18.8159 82.6876 18.6037 82.5995 18.4474 82.4425C18.291 82.2855 18.2031 82.0727 18.2031 81.8507C18.2031 81.6287 18.291 81.4158 18.4474 81.2588C18.6037 81.1018 18.8159 81.0137 19.037 81.0137H36.583C36.8041 81.0137 37.016 81.1018 37.1723 81.2588C37.3287 81.4158 37.4166 81.6287 37.4166 81.8507C37.4166 82.0727 37.3287 82.2855 37.1723 82.4425C37.016 82.5995 36.8041 82.6876 36.583 82.6876V82.6876Z" fill="#282828"/>
<path d="M68.4577 82.6876H50.9117C50.6906 82.6876 50.4787 82.5995 50.3224 82.4425C50.166 82.2855 50.0781 82.0727 50.0781 81.8507C50.0781 81.6287 50.166 81.4158 50.3224 81.2588C50.4787 81.1018 50.6906 81.0137 50.9117 81.0137H68.4577C68.6788 81.0137 68.891 81.1018 69.0473 81.2588C69.2037 81.4158 69.2916 81.6287 69.2916 81.8507C69.2916 82.0727 69.2037 82.2855 69.0473 82.4425C68.891 82.5995 68.6788 82.6876 68.4577 82.6876V82.6876Z" fill="#282828"/>
<path d="M100.32 82.6876H82.787C82.5659 82.6876 82.3537 82.5995 82.1974 82.4425C82.041 82.2855 81.9531 82.0727 81.9531 81.8507C81.9531 81.6287 82.041 81.4158 82.1974 81.2588C82.3537 81.1018 82.5659 81.0137 82.787 81.0137H100.32C100.541 81.0137 100.753 81.1018 100.91 81.2588C101.066 81.4158 101.154 81.6287 101.154 81.8507C101.154 82.0727 101.066 82.2855 100.91 82.4425C100.753 82.5995 100.541 82.6876 100.32 82.6876V82.6876Z" fill="#282828"/>
</svg>

<svg width="120" height="120" fill="none" xmlns="http://www.w3.org/2000/svg"><path d="M12.157 27.512c-.399 0-.782.158-1.065.44a1.522 1.522 0 00-.448 1.066v65.775a1.52 1.52 0 001.513 1.506H97.58V85.483a.839.839 0 01.834-.837h10.363V29.018a1.499 1.499 0 00-1.5-1.507h-5.336v3.375c0 .57-.226 1.117-.627 1.52a2.14 2.14 0 01-1.515.63h-4.104a2.133 2.133 0 01-1.515-.63 2.152 2.152 0 01-.627-1.52v-3.374h-10.66v3.373a2.167 2.167 0 01-.636 1.522 2.15 2.15 0 01-1.519.629h-4.091a2.15 2.15 0 01-1.519-.63 2.167 2.167 0 01-.636-1.52v-3.374H63.834v3.373a2.168 2.168 0 01-.636 1.522 2.15 2.15 0 01-1.519.629h-4.105a2.137 2.137 0 01-1.506-.634 2.155 2.155 0 01-.623-1.517v-3.373h-10.67v3.373a2.16 2.16 0 01-.628 1.521 2.14 2.14 0 01-1.515.63h-4.104a2.135 2.135 0 01-1.98-1.328 2.157 2.157 0 01-.162-.822v-3.374H25.715v3.373c0 .57-.226 1.118-.628 1.521-.402.403-.946.63-1.514.63H19.48a2.15 2.15 0 01-1.519-.63 2.167 2.167 0 01-.636-1.52v-3.374h-5.169zM98.413 97.96H12.157a3.174 3.174 0 01-2.244-.93 3.2 3.2 0 01-.936-2.25V29.018a3.2 3.2 0 01.936-2.25 3.174 3.174 0 012.244-.93h6.08a.833.833 0 01.834.837v4.21a.48.48 0 00.301.444.46.46 0 00.186.033h4.091a.474.474 0 00.475-.476v-4.211a.838.838 0 01.834-.837h12.339a.832.832 0 01.833.837v4.21a.49.49 0 00.475.477h4.104a.487.487 0 00.475-.476v-4.211a.838.838 0 01.834-.837h12.338a.833.833 0 01.834.837v4.21a.477.477 0 00.462.477h4.104a.474.474 0 00.487-.476v-4.211a.838.838 0 01.834-.837h12.326a.832.832 0 01.834.837v4.21a.49.49 0 00.487.477h4.091a.486.486 0 00.488-.476v-4.211a.838.838 0 01.834-.837h12.325a.832.832 0 01.834.837v4.21a.463.463 0 00.475.477h4.104a.487.487 0 00.475-.476v-4.211a.836.836 0 01.833-.837h6.093c.839.003 1.643.34 2.236.935.593.596.928 1.403.932 2.245V85.47a.834.834 0 01-.834.837H99.246v10.816a.839.839 0 01-.833.837z" fill="#282828"/><path d="M109.633 42.77h-99.8A.831.831 0 019 41.933a.839.839 0 01.834-.837h99.799a.831.831 0 01.834.837.83.83 0 01-.834.837zM19.53 21.988a.474.474 0 00-.488.476v8.421a.477.477 0 00.488.477h4.091a.474.474 0 00.475-.477v-8.42a.467.467 0 00-.291-.445.463.463 0 00-.184-.032H19.53zm4.091 11.048H19.53a2.15 2.15 0 01-1.52-.63 2.167 2.167 0 01-.635-1.52v-8.422c0-.574.227-1.124.631-1.53a2.15 2.15 0 011.524-.633h4.091c.57.003 1.114.233 1.516.638.401.405.626.953.626 1.525v8.421c0 .57-.226 1.118-.627 1.52-.402.404-.947.63-1.515.63zM38.58 21.988a.474.474 0 00-.475.476v8.421a.49.49 0 00.475.477h4.104a.486.486 0 00.474-.477v-8.42a.478.478 0 00-.474-.477H38.58zm4.104 11.048H38.58a2.138 2.138 0 01-1.515-.63 2.155 2.155 0 01-.627-1.52v-8.422c0-.572.225-1.12.626-1.525a2.151 2.151 0 011.516-.638h4.104a2.15 2.15 0 011.515.638c.402.405.627.953.627 1.525v8.421c0 .57-.226 1.118-.627 1.52-.402.404-.947.63-1.515.63zm14.937-11.048a.46.46 0 00-.461.476v8.421a.477.477 0 00.461.477h4.104a.473.473 0 00.488-.477v-8.42a.477.477 0 00-.488-.477h-4.104zm4.104 11.048h-4.104a2.137 2.137 0 01-1.506-.635 2.155 2.155 0 01-.623-1.516v-8.42c0-.57.224-1.117.622-1.522a2.15 2.15 0 011.507-.642h4.104c.572 0 1.12.228 1.524.633.404.406.631.956.631 1.53v8.421a2.167 2.167 0 01-.635 1.522 2.15 2.15 0 01-1.52.629zm14.969-11.048a.473.473 0 00-.487.476v8.421a.49.49 0 00.487.477h4.091a.486.486 0 00.488-.477v-8.42a.48.48 0 00-.302-.445.474.474 0 00-.186-.032h-4.09zm4.091 11.048h-4.09c-.57 0-1.116-.226-1.52-.63a2.168 2.168 0 01-.636-1.52v-8.422c0-.574.227-1.124.631-1.53a2.15 2.15 0 011.524-.633h4.091a2.16 2.16 0 011.52.637c.404.405.632.953.635 1.526v8.421a2.167 2.167 0 01-.635 1.522 2.15 2.15 0 01-1.52.629zm14.958-11.048a.46.46 0 00-.474.476v8.421a.465.465 0 00.474.477h4.105a.485.485 0 00.474-.477v-8.42a.478.478 0 00-.474-.477h-4.105zm4.105 11.048h-4.105a2.138 2.138 0 01-1.514-.63 2.154 2.154 0 01-.627-1.52v-8.422c0-.572.225-1.12.626-1.525a2.15 2.15 0 011.515-.638h4.105a2.15 2.15 0 011.515.638c.402.405.627.953.627 1.525v8.421a2.151 2.151 0 01-2.142 2.15zM98.587 97.73a.844.844 0 01-.577-.233.836.836 0 01-.18-.912.837.837 0 01.18-.272l10.98-11.423a.843.843 0 01.585-.258.831.831 0 01.782.5.843.843 0 01-.161.917L99.203 97.472a.807.807 0 01-.603.257h-.013zm-62.004-39.7H19.037a.832.832 0 01-.834-.838.84.84 0 01.515-.773.832.832 0 01.319-.063h17.546a.831.831 0 01.834.836.839.839 0 01-.834.837zm31.875 0H50.912a.831.831 0 01-.834-.838.838.838 0 01.834-.837h17.546a.832.832 0 01.834.837.839.839 0 01-.834.837zm31.862 0H82.787a.832.832 0 01-.834-.838.84.84 0 01.515-.773.832.832 0 01.319-.063h17.533a.83.83 0 01.77.516.839.839 0 01-.451 1.094.83.83 0 01-.319.063zM36.583 70.326H19.037a.832.832 0 01-.834-.837.838.838 0 01.834-.837h17.546a.831.831 0 01.834.837.839.839 0 01-.834.837zm31.875 0H50.912a.832.832 0 01-.834-.837.838.838 0 01.834-.837h17.546a.832.832 0 01.834.837.839.839 0 01-.834.837zm31.862 0H82.787a.832.832 0 01-.834-.837.838.838 0 01.834-.837h17.533a.834.834 0 01.834.837.835.835 0 01-.834.837zM36.583 82.688H19.037a.832.832 0 01-.834-.837.839.839 0 01.834-.837h17.546a.831.831 0 01.834.837.838.838 0 01-.834.837zm31.875 0H50.912a.831.831 0 01-.834-.837.839.839 0 01.834-.837h17.546a.832.832 0 01.834.837.838.838 0 01-.834.837zm31.862 0H82.787a.832.832 0 01-.834-.837.839.839 0 01.834-.837h17.533a.834.834 0 01.834.837.834.834 0 01-.834.837z" fill="#282828"/></svg>
